src/assets/icon/mobile/color.svg

<svg width="24" height="24" viewBox="0 0 24 24" fill="currentColor" xmlns="http://www.w3.org/2000/svg">
<path d="M16.3308 5.51927C17.0343 4.95921 17.7067 4.38657 18.4164 3.87056C18.8335 3.5685 19.3191 3.36084 19.7736 3.12171C19.8795 3.06508 20.0102 3.0462 20.1347 3.02103C20.7324 2.90146 21.1309 3.3042 21.0126 3.91461C20.9067 4.48725 20.6203 4.97809 20.3153 5.45005C19.7674 6.29958 19.1137 7.06731 18.4289 7.80986C18.379 7.8602 18.3355 7.91055 18.3417 7.9483C18.5534 8.565 18.8024 9.1754 18.9767 9.79839C19.2071 10.629 19.3005 11.4849 19.1946 12.347C19.0701 13.3475 18.5347 14.0272 17.6195 14.4173C17.0592 14.6564 16.4677 14.7571 15.87 14.8012C15.3346 14.8389 14.793 14.8389 14.2576 14.883C14.0334 14.9019 13.8031 14.9648 13.5852 15.0466C12.6202 15.4116 12.4832 16.5569 12.8319 17.3372C12.9688 17.6455 13.0871 17.9728 13.1369 18.3C13.2303 18.9167 12.9626 19.3824 12.4396 19.6907C12.0848 19.9047 11.6863 19.9928 11.2754 19.9991C7.47143 20.0557 4.24646 17.5763 3.26278 13.8447C2.11101 9.48375 4.86282 4.83965 9.22088 3.83909C11.817 3.24127 14.1642 3.79504 16.256 5.45635C16.281 5.48152 16.3183 5.50669 16.3308 5.51927ZM15.9012 5.97865C15.8576 5.94089 15.814 5.89684 15.7642 5.85909C13.9587 4.46208 11.9353 3.92719 9.70027 4.36769C5.7282 5.148 3.12581 8.8293 3.68614 12.8567C3.99743 15.1158 5.1243 16.8778 6.99827 18.149C8.16872 18.9419 9.46991 19.332 10.8769 19.3949C11.2879 19.4138 11.6925 19.3886 12.0661 19.2062C12.4832 19.0048 12.6513 18.6524 12.533 18.2056C12.4832 18.0042 12.4023 17.8091 12.3089 17.6267C12.0848 17.1547 12.01 16.6639 12.0848 16.1478C12.2653 14.9207 13.1307 14.4047 14.0957 14.2852C14.7432 14.2034 15.4031 14.216 16.0568 14.1593C16.5922 14.1153 17.1214 14.002 17.6008 13.744C18.2047 13.4231 18.5222 12.9133 18.597 12.2337C18.6841 11.4408 18.572 10.6731 18.3853 9.90537C18.2608 9.38936 18.0802 8.89852 17.8374 8.42656C17.5635 8.67827 17.3082 8.93628 17.0405 9.16282C16.0506 9.99976 15.6148 10.2892 14.8241 10.7423C14.7743 10.7738 14.712 10.8556 14.7183 10.9059C14.8179 11.8247 14.4008 12.4791 13.6723 12.9511C13.0809 13.335 12.4147 13.3853 11.7361 13.2783C10.9019 13.1462 10.2108 12.7749 9.72517 12.0575C9.63801 11.9317 9.58198 11.7995 9.66914 11.6548C9.75008 11.5037 9.89327 11.4849 10.0427 11.51C10.4847 11.5856 10.7898 11.3905 11.0015 11.0066C11.1509 10.736 11.2941 10.4654 11.4559 10.2011C11.8606 9.54668 12.4583 9.30126 13.2054 9.38936C13.2552 9.39565 13.3424 9.34531 13.3673 9.30126C13.747 8.57758 14.2264 7.92313 14.7494 7.30014C15.1105 6.85335 15.509 6.42544 15.9012 5.97865ZM16.007 9.20687C15.5899 9.20687 16.0257 9.19428 16.0506 9.1754C17.3767 8.09933 18.5658 6.88482 19.562 5.48781C19.9106 5.00326 20.2343 4.49984 20.4024 3.91461C20.4273 3.82651 20.4336 3.70065 20.39 3.63772C20.3589 3.59367 20.2094 3.60626 20.1285 3.63772C19.7799 3.79504 19.425 3.93978 19.1075 4.13485C17.881 4.90258 16.835 5.88426 15.8514 6.94774C15.509 7.31902 15.1852 7.71547 14.8801 8.06787C15.2661 8.46431 15.6335 8.8293 16.007 9.20687ZM10.5906 12.1016C10.603 12.133 10.6092 12.1456 10.6155 12.1519C10.6466 12.1771 10.6715 12.2022 10.7026 12.2211C11.126 12.5232 11.5991 12.6868 12.1159 12.712C12.6451 12.7371 13.1369 12.6302 13.554 12.2715C13.9649 11.9191 14.214 11.4912 14.0895 10.9248C13.9836 10.4466 13.6723 10.1319 13.2054 10.0186C12.7198 9.89908 12.3027 10.0249 12.01 10.4654C11.9104 10.6102 11.8233 10.7612 11.7423 10.9185C11.4622 11.4345 11.1945 11.9317 10.5906 12.1016ZM14.4755 8.61534C14.2638 8.96774 14.0646 9.30126 13.9089 9.55926C14.1393 9.7921 14.3323 9.98718 14.5564 10.2137C14.8179 10.0501 15.1479 9.84244 15.484 9.63478C15.2163 9.20057 14.8988 8.87964 14.4755 8.61534Z" fill="currentColor" stroke="currentColor" stroke-miterlimit="10"/>
<path d="M12.9253 6.65828C12.9253 7.49523 12.2529 8.16856 11.4186 8.16226C10.5781 8.16226 9.9182 7.48264 9.92442 6.62052C9.93065 5.78358 10.603 5.12283 11.4435 5.12283C12.2653 5.12913 12.9253 5.80875 12.9253 6.65828ZM10.5221 6.65828C10.5283 7.14912 10.9455 7.56445 11.4248 7.55815C11.9105 7.55186 12.3214 7.13654 12.3214 6.6457C12.3214 6.14856 11.8918 5.72694 11.4062 5.73324C10.9206 5.74582 10.5159 6.16744 10.5221 6.65828Z" fill="currentColor" stroke="currentColor" stroke-width="0.75" stroke-miterlimit="10"/>
<path d="M7.50878 10.2892C6.68075 10.2892 6.01459 9.60956 6.01459 8.76632C6.01459 7.91679 6.68697 7.24976 7.53368 7.24976C8.36172 7.24976 9.02165 7.93567 9.01543 8.77891C9.01543 9.62215 8.34304 10.2892 7.50878 10.2892ZM8.41775 8.77262C8.41775 8.28178 8.00685 7.86645 7.52123 7.86645C7.03562 7.86016 6.61849 8.27548 6.61849 8.76003C6.61227 9.25716 7.02939 9.68508 7.52123 9.67878C8.00685 9.67878 8.41775 9.25716 8.41775 8.77262Z" fill="currentColor" stroke="currentColor" stroke-width="0.75" stroke-miterlimit="10"/>
<path d="M8.11894 13.0329C8.11894 13.8699 7.44656 14.5432 6.6123 14.5432C5.77181 14.5432 5.11188 13.8636 5.11188 13.0077C5.11188 12.1708 5.78426 11.5038 6.62475 11.5101C7.45901 11.5101 8.11894 12.1834 8.11894 13.0329ZM7.51504 13.0266C7.52127 12.5421 7.11036 12.1205 6.62475 12.1079C6.14536 12.1016 5.72823 12.5106 5.71578 13.0015C5.70333 13.4923 6.12668 13.9265 6.6123 13.9265C7.09791 13.9328 7.50881 13.5175 7.51504 13.0266Z" fill="currentColor" stroke="currentColor" stroke-width="0.75" stroke-miterlimit="10"/>
<path d="M9.30802 17.8784C8.47999 17.8784 7.81382 17.1988 7.82005 16.3555C7.82005 15.506 8.49244 14.839 9.33915 14.8453C10.1672 14.8516 10.8209 15.5312 10.8209 16.3807C10.8147 17.2177 10.1485 17.8847 9.30802 17.8784ZM8.41773 16.3555C8.4115 16.8464 8.82241 17.2617 9.30802 17.268C9.78741 17.2743 10.2045 16.8653 10.217 16.3744C10.2294 15.8836 9.80608 15.4494 9.31425 15.4494C8.83486 15.4557 8.42395 15.8647 8.41773 16.3555Z" fill="currentColor" stroke="currentColor" stroke-width="0.75" stroke-miterlimit="10"/>
</svg>

<svg xmlns="http://www.w3.org/2000/svg" width="24" height="24" fill="currentColor" viewBox="0 0 24 24">
  <path stroke-miterlimit="10" stroke-width=".75" d="M16.33 5.52c.704-.56 1.377-1.133 2.086-1.65.418-.302.903-.51 1.358-.748.105-.057.236-.076.36-.101.598-.12.997.283.879.894-.106.572-.393 1.063-.698 1.535-.548.85-1.201 1.617-1.886 2.36-.05.05-.093.1-.087.138.211.617.46 1.227.635 1.85.23.831.323 1.687.218 2.549-.125 1-.66 1.68-1.576 2.07-.56.24-1.151.34-1.749.384-.535.038-1.077.038-1.612.082a2.561 2.561 0 00-.673.164c-.965.365-1.102 1.51-.753 2.29.137.308.255.636.305.963.093.617-.174 1.082-.697 1.39-.355.215-.754.303-1.165.309-3.804.057-7.029-2.423-8.012-6.154C2.11 9.484 4.863 4.84 9.22 3.839c2.596-.598 4.943-.044 7.035 1.617.025.026.062.05.075.063zm-.429.459c-.043-.038-.087-.082-.137-.12C13.96 4.462 11.935 3.927 9.7 4.368c-3.972.78-6.574 4.461-6.014 8.489.311 2.259 1.438 4.02 3.312 5.292 1.17.793 2.472 1.183 3.879 1.246.41.019.816-.006 1.19-.189.416-.201.584-.554.466-1a2.712 2.712 0 00-.224-.58c-.224-.471-.299-.962-.224-1.478.18-1.227 1.046-1.743 2.01-1.863.648-.082 1.308-.069 1.962-.126.535-.044 1.064-.157 1.544-.415.604-.32.921-.83.996-1.51.087-.793-.025-1.56-.212-2.329a6.591 6.591 0 00-.548-1.478c-.273.251-.529.51-.796.736-.99.837-1.426 1.126-2.217 1.58-.05.03-.112.113-.106.163.1.919-.317 1.573-1.046 2.045-.591.384-1.257.434-1.936.327-.834-.132-1.525-.503-2.01-1.22-.088-.126-.144-.258-.057-.403.081-.151.224-.17.374-.145.442.076.747-.12.959-.503.149-.271.292-.542.454-.806.405-.654 1.002-.9 1.75-.812.05.007.136-.044.161-.088.38-.723.86-1.378 1.382-2 .361-.448.76-.876 1.152-1.322zm.106 3.228c-.417 0 .019-.013.044-.032 1.326-1.076 2.515-2.29 3.511-3.687.349-.485.672-.988.84-1.573.025-.088.032-.214-.012-.277-.031-.044-.18-.032-.262 0-.348.157-.703.302-1.02.497-1.227.768-2.273 1.75-3.257 2.813-.342.371-.666.767-.97 1.12.385.396.752.761 1.126 1.139zm-5.416 2.895a.166.166 0 00.025.05c.03.025.056.05.087.07.423.301.896.465 1.413.49.53.025 1.02-.082 1.438-.44.41-.353.66-.78.535-1.347-.105-.478-.417-.793-.884-.906-.485-.12-.902.006-1.195.446a4.13 4.13 0 00-.268.454c-.28.515-.548 1.013-1.151 1.183zm3.885-3.487l-.567.944.647.655c.262-.164.592-.372.928-.58a3.022 3.022 0 00-1.008-1.019z"/>
  <path stroke-miterlimit="10" stroke-width=".75" d="M12.925 6.658c0 .837-.672 1.51-1.506 1.504-.84 0-1.5-.68-1.495-1.541a1.505 1.505 0 011.52-1.498c.821.006 1.481.686 1.481 1.535zm-2.403 0c.006.491.423.906.903.9a.924.924 0 00.896-.912.927.927 0 00-.915-.913.924.924 0 00-.884.925zM7.509 10.29c-.828 0-1.494-.68-1.494-1.524 0-.85.672-1.516 1.519-1.516.828 0 1.488.686 1.481 1.529 0 .843-.672 1.51-1.506 1.51zm.909-1.517c0-.491-.411-.907-.897-.907a.908.908 0 00-.903.894c-.006.497.411.925.903.919a.918.918 0 00.897-.906zM8.119 13.033c0 .837-.672 1.51-1.507 1.51-.84 0-1.5-.68-1.5-1.535 0-.837.672-1.504 1.513-1.498.834 0 1.494.673 1.494 1.523zm-.604-.006a.928.928 0 00-.89-.92c-.48-.005-.897.404-.91.895-.012.49.412.925.897.925.486.006.897-.41.903-.9zM9.308 17.878c-.828 0-1.494-.68-1.488-1.523 0-.849.672-1.516 1.52-1.51.827.007 1.48.686 1.48 1.536a1.496 1.496 0 01-1.512 1.497zm-.89-1.523a.914.914 0 00.89.913c.48.006.896-.403.909-.894a.923.923 0 00-.903-.925.927.927 0 00-.896.906z"/>
</svg>
